X: 18506
T: I Could But I Won't
R: polka
M: 2/4
K: Gmajor
D/|G<E F>D|G<B d>D|ed/c/ BG|A>G Ez/D/|
G<E FD|G<B dd|ed/c/ BG|A>G G||
B|c>d ec|A>B cd|B>G cB|AG/E/ D>E|
G>E FD|G>B dd|ed/c/ BG|A>G (G G/)||

